X:1
T:Title
%%score ( 1 2 ) { 3 | 4 }
L:1/8
Q:1/4=105
M:6/8
K:Eb
V:1 treble nm="Grand Piano, Soprano"
V:2 treble 
V:3 bass nm="Choir Pad, Affton, 76.76.76 D"
V:4 bass 
V:1
 [GB] [Ge]2 [GB] [GB]2 | [EG] [EG]2- [EG] [DF]2 | [EG] [FA]2 [Ac] [GB]2 | %3
w: By~Theodore~Frelinghuysen~Seward,~1875 * * *|||
 [FA] [EG]2- [EG]2- [EG]/ z/ | [GB] [Ge]2 [GB] [GB]2 | [EG] [EG]2- [EG] [DF]2 | %6
w: |||
 [EG][FA][GB] [Ac] [GB]2 | [B,D] [B,E]2- [B,E]2- [B,E]/ z/ | [EG] [EG]2 [DF] [DF]2 | %9
w: |||
 [DB] [Fd]2- [Fd] [DB]2 | [Bd][ce][Bd] [=Ac][Ac][Bd] | [ce] [Bd]2- [Bd]2- [Bd]/ z/ | %12
w: |||
 [DB] [EG]2 [DF] [DF]2 | [DB] [Fd]2- [Fd] [Ff]2 | [Ge] [Fd]2 [Ec] [DB]2 | %15
w: |||
 [C=A] [DB]2- [DB]2- [DB]/ z/ | [GB] [Ge]2 [GB] [GB]2 | [EG] [EG]2- [EG] [DF]2 | %18
w: |||
 [EG] [FA]2 [Ac] [GB]2 | [FA] [EG]2- [EG]2- [EG]/ z/ | [GB] [Ge]2 [Ee] [Ee]2 | %21
w: |||
 [Ee] [Ee]2- [Ee] [Ed]2 | z3 z .d2 | [Ad] [Ge]2- [Ge]3- | [Ge]3 z3 |] %25
w: ||||
V:2
 x6 | x6 | x6 | x6 | x6 | x6 | x6 | x6 | x6 | x6 | x6 | x6 | x6 | x6 | x6 | x6 | x6 | x6 | x6 | %19
 x6 | x6 | x6 | [Ac] [GB]2 [GB]A-[Ac] | x6 | x6 |] %25
V:3
 B, B,2 E E2 | B, B,2- B, B,2 | B, B,2 B, B,2 | D E2- E2- E/ z/ | B, B,2 E E2 | B, B,2- B, B,2 | %6
 B, B,2 B, B,2 | A, G,2- G,2- G,/ z/ | B, B,2 B, B,2 | B, B,2- B, B,2 | B, F,2 F, F,2 | %11
 F, B,2- B,2- B,/ z/ | B, B,2 B, B,2 | B, B,2- B, B,2 | B, B,2 F, F,2 | F, F,2- F,2- F,/ z/ | %16
 B, B,2 E E2 | B, B,2- B, B,2 | B, B,2 B, B,2 | D B,2- B,2- B,/ z/ | B, B,2 G,G,A, | %21
 B,[K:treble] C2- C C2 | E E2[K:bass] B, B,2 | B, B,2- B,3- | B,3 z3 |] %25
V:4
 E, E,2 E, E,2 | E, B,,2- B,, B,,2 | B,, B,,2 B,, B,,2 | B,, E,2- E,2- E,/ z/ | E, E,2 E, E,2 | %5
 E, B,,2- B,, B,,2 | B,, B,,2 B,, B,,2 | B,, E,2- E,2- E,/ z/ | B,, B,,2 B,, B,,2 | %9
 B,, B,,2- B,, B,,2 | .B,,3 z3 | z B,,2- B,,2- B,,/ z/ | B,, B,,2 B,, B,,2 | B,, B,,2- B,, D,2 | %14
 E, F,2 z3 | z B,,2- B,,2- B,,/ z/ | E, E,2 E, E,2 | E, B,,2- B,, B,,2 | B,, B,,2 B,, B,,2 | %19
 B,, E,2- E,2- E,/ z/ | E, E,2 E,E,F, | G, A,2- A, A,2 | A, B,2 z B,,2 | B,, E,2- E,3- | E,3 z3 |] %25

